packages/kaspersky-hexa-ui-icons/src/iconsSVGs/28x20/FlagGe.svg

<svg width="28" height="20" viewBox="0 0 28 20" fill="none" xmlns="http://www.w3.org/2000/svg">
<g clip-path="url(#clip0_41916_298)">
<rect width="28" height="20" rx="2" fill="white"/>
<path d="M0 2C0 0.895431 0.895431 0 2 0H26C27.1046 0 28 0.895431 28 2V18C28 19.1046 27.1046 20 26 20H2C0.895431 20 0 19.1046 0 18V2Z" fill="white"/>
<path d="M26 19.5V20H2V19.5H26ZM27.5 18V2C27.5 1.17157 26.8284 0.5 26 0.5H2C1.17157 0.5 0.5 1.17157 0.5 2V18C0.5 18.8284 1.17157 19.5 2 19.5V20C0.895431 20 0 19.1046 0 18V2C2.57702e-07 0.895431 0.895431 0 2 0H26C27.1046 0 28 0.895431 28 2V18C28 19.1046 27.1046 20 26 20V19.5C26.8284 19.5 27.5 18.8284 27.5 18Z" fill="#F5F5F5"/>
<rect x="12.0964" width="3.80719" height="20" fill="#FF0000"/>
<rect x="28" y="8.09641" width="3.80719" height="28" transform="rotate(90 28 8.09641)" fill="#FF0000"/>
<path d="M6.6459 3.29663C6.59791 3.58313 6.56655 3.87179 6.54922 4.16089C6.83866 4.14358 7.12763 4.11324 7.41446 4.06519L8.017 3.9646C7.90932 4.41623 7.90924 4.88701 8.017 5.33862L7.41446 5.23706C7.1276 5.189 6.83869 5.15769 6.54922 5.14038C6.56653 5.42986 6.59785 5.71874 6.6459 6.00562L6.74747 6.60913C6.29569 6.50134 5.82425 6.50134 5.37247 6.60913L5.47403 6.00562C5.52207 5.71877 5.55243 5.42983 5.56973 5.14038C5.28059 5.1577 4.99201 5.18907 4.70547 5.23706L4.10196 5.33862C4.20973 4.88695 4.20968 4.41628 4.10196 3.9646L4.70547 4.06519C4.99201 4.11318 5.28059 4.14357 5.56973 4.16089C5.5524 3.8718 5.52202 3.58311 5.47403 3.29663L5.37247 2.69409C5.82425 2.80189 6.29569 2.80189 6.74747 2.69409L6.6459 3.29663Z" fill="#FF0000"/>
<path d="M22.5269 3.29663C22.4789 3.58313 22.4476 3.87178 22.4303 4.16089C22.7197 4.14358 23.0086 4.11324 23.2955 4.06519L23.898 3.9646C23.7904 4.41622 23.7903 4.88702 23.898 5.33862L23.2955 5.23706C23.0086 5.18901 22.7197 5.15769 22.4303 5.14038C22.4476 5.42986 22.4789 5.71875 22.5269 6.00562L22.6285 6.60913C22.1767 6.50134 21.7053 6.50134 21.2535 6.60913L21.3551 6.00562C21.4031 5.71876 21.4335 5.42984 21.4508 5.14038C21.1616 5.15771 20.8731 5.18906 20.5865 5.23706L19.984 5.33862C20.0917 4.88701 20.0917 4.41623 19.984 3.9646L20.5865 4.06519C20.873 4.11318 21.1617 4.14356 21.4508 4.16089C21.4334 3.87181 21.4031 3.58311 21.3551 3.29663L21.2535 2.69409C21.7053 2.80189 22.1767 2.80189 22.6285 2.69409L22.5269 3.29663Z" fill="#FF0000"/>
<path d="M6.6459 13.9944C6.59791 14.2809 6.56654 14.5695 6.54922 14.8586C6.83867 14.8413 7.12762 14.81 7.41446 14.762L8.017 14.6614C7.90925 15.113 7.90929 15.5838 8.017 16.0354L7.41446 15.9348C7.12761 15.8868 6.83868 15.8554 6.54922 15.8381C6.56654 16.1275 6.59786 16.4166 6.6459 16.7034L6.74747 17.3059C6.29569 17.1981 5.82425 17.1981 5.37247 17.3059L5.47403 16.7034C5.52207 16.4166 5.55242 16.1275 5.56973 15.8381C5.28057 15.8555 4.99203 15.8868 4.70547 15.9348L4.10196 16.0354C4.20971 15.5837 4.20974 15.1131 4.10196 14.6614L4.70547 14.762C4.99204 14.81 5.28056 14.8413 5.56973 14.8586C5.55242 14.5695 5.52201 14.2809 5.47403 13.9944L5.37247 13.3909C5.82425 13.4987 6.29569 13.4987 6.74747 13.3909L6.6459 13.9944Z" fill="#FF0000"/>
<path d="M22.5269 13.9944C22.479 14.2809 22.4476 14.5695 22.4303 14.8586C22.7198 14.8413 23.0086 14.81 23.2955 14.762L23.898 14.6614C23.7903 15.113 23.7904 15.5838 23.898 16.0354L23.2955 15.9348C23.0086 15.8868 22.7198 15.8554 22.4303 15.8381C22.4476 16.1275 22.4789 16.4166 22.5269 16.7034L22.6285 17.3059C22.1767 17.1981 21.7053 17.1981 21.2535 17.3059L21.3551 16.7034C21.4031 16.4166 21.4335 16.1275 21.4508 15.8381C21.1616 15.8555 20.873 15.8868 20.5865 15.9348L19.984 16.0354C20.0917 15.5838 20.0917 15.113 19.984 14.6614L20.5865 14.762C20.873 14.81 21.1616 14.8413 21.4508 14.8586C21.4335 14.5695 21.4031 14.2809 21.3551 13.9944L21.2535 13.3909C21.7053 13.4987 22.1767 13.4987 22.6285 13.3909L22.5269 13.9944Z" fill="#FF0000"/>
</g>
<defs>
<clipPath id="clip0_41916_298">
<rect width="28" height="20" rx="2" fill="white"/>
</clipPath>
</defs>
</svg>

<svg xmlns="http://www.w3.org/2000/svg" width="28" height="20" fill="none" viewBox="0 0 28 20"><g clip-path="url(#a)"><rect width="28" height="20" fill="#fff" rx="2"/><path fill="#fff" d="M0 2C0 .8954.8954 0 2 0h24c1.1046 0 2 .8954 2 2v16c0 1.1046-.8954 2-2 2H2c-1.1046 0-2-.8954-2-2z"/><path fill="#f5f5f5" d="M26 19.5v.5H2v-.5zm1.5-1.5V2c0-.8284-.6716-1.5-1.5-1.5H2C1.1716.5.5 1.1716.5 2v16c0 .8284.6716 1.5 1.5 1.5v.5c-1.1046 0-2-.8954-2-2V2C0 .8954.8954 0 2 0h24c1.1046 0 2 .8954 2 2v16c0 1.1046-.8954 2-2 2v-.5c.8284 0 1.5-.6716 1.5-1.5"/><path fill="red" d="M12.0964 0h3.8072v20h-3.8072z"/><path fill="red" d="M28 8.096v3.807H0V8.096zM6.646 3.297a8.2 8.2 0 0 0-.097.864 8.2 8.2 0 0 0 .865-.096l.603-.101a2.96 2.96 0 0 0 0 1.374l-.602-.101a8.2 8.2 0 0 0-.865-.097c.017.29.049.578.097.865l.102.604a2.964 2.964 0 0 0-1.375 0l.102-.603a8.2 8.2 0 0 0 .096-.865 8.2 8.2 0 0 0-.864.097l-.603.102a2.96 2.96 0 0 0 0-1.374l.604.101c.287.048.575.078.864.096a8.2 8.2 0 0 0-.096-.864l-.101-.602a2.96 2.96 0 0 0 1.375 0zm15.881 0a8.2 8.2 0 0 0-.097.864 8.2 8.2 0 0 0 .865-.096l.603-.101a2.96 2.96 0 0 0 0 1.374l-.602-.101a8.2 8.2 0 0 0-.865-.097 8.2 8.2 0 0 0 .097.865l.102.604a2.964 2.964 0 0 0-1.375 0l.102-.603a8.2 8.2 0 0 0 .096-.865 8.2 8.2 0 0 0-.864.097l-.602.102a2.96 2.96 0 0 0 0-1.374l.603.101c.287.048.575.078.864.096a8.2 8.2 0 0 0-.096-.864l-.102-.602a2.96 2.96 0 0 0 1.375 0zM6.646 13.994a8.2 8.2 0 0 0-.097.864 8.2 8.2 0 0 0 .865-.097l.603-.101a2.96 2.96 0 0 0 0 1.374l-.602-.101a8.2 8.2 0 0 0-.865-.097c.017.289.049.579.097.865l.102.603a2.96 2.96 0 0 0-1.375 0l.102-.602a8.2 8.2 0 0 0 .096-.865 8.2 8.2 0 0 0-.864.097l-.603.101a2.96 2.96 0 0 0 0-1.374l.604.101c.287.048.575.079.864.097a8.2 8.2 0 0 0-.096-.864l-.101-.603a2.96 2.96 0 0 0 1.375 0zm15.881 0a8.2 8.2 0 0 0-.097.864 8.2 8.2 0 0 0 .865-.097l.603-.101a2.96 2.96 0 0 0 0 1.374l-.602-.101a8.2 8.2 0 0 0-.865-.097c.017.289.049.579.097.865l.102.603a2.96 2.96 0 0 0-1.375 0l.102-.602a8.2 8.2 0 0 0 .096-.865 8.2 8.2 0 0 0-.864.097l-.602.101a2.96 2.96 0 0 0 0-1.374l.603.101c.287.048.575.079.864.097a8.2 8.2 0 0 0-.096-.864l-.102-.603a2.96 2.96 0 0 0 1.375 0z"/></g><defs><clipPath id="a"><rect width="28" height="20" fill="#fff" rx="2"/></clipPath></defs></svg>
